svg/emoji_u1f9de_200d_2642.svg

<svg width="128" height="128" xmlns="http://www.w3.org/2000/svg" xmlns:xlink="http://www.w3.org/1999/xlink"><defs><path id="a" d="M4 4h120v120H4z"/></defs><clipPath id="b"><use xlink:href="#a" overflow="visible"/></clipPath><path d="M81.5 7.91c3.28 2.33 5.55 5.77 8.3 8.71s6.43 5.5 10.44 5.17c1.77-.15 3.69-1.11 4.08-2.84.88 1.06.93 2.63.4 3.9s-1.57 2.26-2.69 3.05c-5 3.54-12.03 3.46-17.46.63s-5.36-8.31-10.09-12.21c-4.62-3.81-8.87-3.99-9.39-5.57-.62-1.89 2.1-3.05 3.36-3.33 4.44-1.01 9.33-.16 13.05 2.49z" clip-path="url(#b)" fill="#1a1a1a" stroke="#3e3e3e" stroke-width="1.429" stroke-miterlimit="10"/><circle cx="64.6" cy="11.1" r="4.94" clip-path="url(#b)" fill="#ffd107" stroke="#d1ac2b" stroke-width="1.004" stroke-miterlimit="10"/><g clip-path="url(#b)"><path d="M39.5 72.07c-2.66-.6-9.53-2.96-14.11-11.86-2.94-5.71-3.66-15.82-3.83-19.92L39.5 51v21.07z" fill="#2381b1"/><path d="M22.65 42.11l15.85 9.45v19.19c-3-.95-8.43-3.63-12.22-11.01-2.48-4.8-3.33-12.94-3.63-17.63M20.5 38.5s.12 14.62 4 22.17c6 11.67 16 12.59 16 12.59V50.43l-20-11.93z" fill="#005686"/><g><path d="M88.5 51l17.95-10.71c-.18 4.1-.9 14.21-3.83 19.92-4.58 8.9-11.45 11.26-14.11 11.86V51z" fill="#2381b1"/><path d="M105.35 42.11c-.29 4.69-1.15 12.82-3.63 17.64-3.8 7.38-9.23 10.06-12.22 11.01V51.57l15.85-9.46m2.15-3.61l-20 11.93v22.82s10-.92 16-12.59c3.88-7.54 4-22.16 4-22.16z" fill="#005686"/></g></g><g clip-path="url(#b)"><linearGradient id="c" gradientUnits="userSpaceOnUse" x1="64" x2="64" y1="90.358" y2="128.333"><stop offset="0" stop-color="#2fa2c6"/></linearGradient><path d="M13 131v-9.94c0-6.9 4.22-12.54 12.54-16.76 7.33-3.72 17.52-6.14 29.45-6.98.52-.04.93-.47.93-1v-5.25h16.16v5.27c0 .52.4.96.92 1 19.37 1.48 41.99 8.58 41.99 23.72V131H13z" fill="url(#c)"/><path d="M71.08 92.08v4.27c0 1.05.81 1.91 1.85 1.99 11.47.88 21.81 3.44 29.1 7.23 7.94 4.12 11.97 9.33 11.97 15.49V130H14v-8.94c0-6.49 4.03-11.83 11.99-15.86 7.22-3.66 17.27-6.04 29.07-6.87a2 2 0 0 0 1.86-2v-4.25h14.16m2-2H54.92v6.25C32.59 97.9 12 105.39 12 121.06V132h104v-10.94c0-14.8-20.49-23-42.92-24.71v-6.27z" fill="#005686"/></g><path d="M29.25 64.38c2.24 0 4.06 1.82 4.06 4.06s-1.82 4.06-4.06 4.06-4.06-1.82-4.06-4.06 1.82-4.06 4.06-4.06m0-2.5c-3.62 0-6.56 2.94-6.56 6.56 0 3.62 2.94 6.56 6.56 6.56 3.62 0 6.56-2.94 6.56-6.56 0-3.63-2.94-6.56-6.56-6.56zM98.75 64.38c2.24 0 4.06 1.82 4.06 4.06s-1.82 4.06-4.06 4.06-4.06-1.82-4.06-4.06 1.82-4.06 4.06-4.06m0-2.5c-3.62 0-6.56 2.94-6.56 6.56 0 3.62 2.94 6.56 6.56 6.56 3.62 0 6.56-2.94 6.56-6.56 0-3.63-2.94-6.56-6.56-6.56z" clip-path="url(#b)" fill="#ffd107" stroke="#d1ac2b" stroke-miterlimit="10"/><g clip-path="url(#b)"><linearGradient id="d" gradientUnits="userSpaceOnUse" x1="63.901" x2="63.901" y1="11.728" y2="93.443"><stop offset=".293" stop-color="#34abd1"/></linearGradient><path d="M64 95.27c-15.51 0-27.84-10.82-31.4-27.56l-.08-.45c-4.96-27.35 2.03-40.75 6.64-46.3 5.55-6.69 13.9-10.11 24.82-10.17 10.73.06 18.97 3.45 24.5 10.07 11.29 13.52 8.65 36.94 6.99 46.38l-.09.52C91.84 84.45 79.51 95.27 64 95.27z" fill="url(#d)"/><path d="M63.97 11.78H64c10.4.06 18.38 3.33 23.72 9.72 11.02 13.2 8.41 36.26 6.77 45.57-.04.21-.06.37-.08.48C90.94 83.78 79.01 94.27 64 94.27S37.05 83.78 33.59 67.53l-.08-.45c-4.89-26.95 1.93-40.07 6.43-45.49 5.35-6.44 13.44-9.75 24.03-9.81m.05-2h-.04c-44.05.25-33.17 53.47-32.36 58.14C35.66 86.88 49.72 96.27 64 96.27s28.34-9.39 32.37-28.35c.51-3.17 11.69-57.89-32.35-58.14z" fill="#005686"/></g><path d="M39.99 50.73s.13-.19.38-.51c.07-.08.12-.16.22-.26.11-.11.23-.22.37-.34.14-.12.28-.24.43-.38.15-.13.31-.23.48-.35.17-.11.34-.24.53-.35.19-.1.4-.21.6-.32.21-.12.43-.21.66-.3.23-.09.47-.18.71-.27.49-.14 1-.29 1.54-.36.53-.1 1.08-.11 1.63-.14.55.03 1.09.03 1.63.14.53.07 1.05.22 1.54.36.24.08.48.17.71.27.23.09.45.18.66.3.21.11.41.22.6.32.19.11.36.24.53.35.17.12.33.22.47.34.14.12.27.24.4.35.12.11.24.21.34.31.1.1.18.21.26.29.31.36.46.57.46.57.51.7.35 1.69-.36 2.19-.43.31-.96.37-1.43.21l-.29-.1s-.19-.07-.49-.2c-.08-.03-.15-.07-.25-.11-.1-.03-.19-.07-.3-.11-.21-.08-.44-.17-.7-.25-.13-.04-.26-.09-.4-.13-.14-.03-.28-.07-.43-.11l-.22-.06c-.08-.01-.15-.03-.23-.04-.16-.03-.31-.07-.47-.1-.33-.04-.66-.11-1-.12-.34-.04-.69-.03-1.03-.05-.35.02-.7.01-1.03.05-.34.02-.67.09-1 .12-.16.03-.31.07-.47.1-.08.01-.16.03-.23.04l-.22.06c-.15.04-.29.07-.43.11-.14.04-.27.09-.4.13-.13.04-.25.08-.37.11-.1.04-.2.07-.29.1l-.27.09c-.1.04-.2.1-.29.14-.36.18-.57.27-.57.27-.83.34-1.77-.05-2.11-.87-.24-.48-.16-1.06.13-1.49z" clip-path="url(#b)" fill="#662f1c"/><ellipse cx="47.56" cy="58.81" rx="4.93" ry="5.1" clip-path="url(#b)" fill="#1a1a1a"/><path d="M86.05 53.13s-.22-.09-.57-.27c-.09-.04-.19-.1-.29-.14-.09-.02-.18-.06-.27-.09-.09-.03-.19-.07-.29-.1-.12-.04-.24-.07-.37-.11-.13-.04-.26-.09-.4-.13-.14-.04-.28-.07-.43-.11l-.22-.06c-.08-.01-.15-.03-.23-.04-.16-.03-.31-.07-.47-.1-.33-.04-.66-.11-1-.12-.34-.04-.69-.03-1.03-.05-.35.02-.7.01-1.03.05-.34.02-.67.09-1 .12-.16.03-.31.07-.47.1-.08.01-.16.03-.23.04l-.22.06c-.15.04-.29.08-.43.11-.14.04-.27.09-.4.13-.26.07-.49.16-.7.25-.11.04-.2.08-.3.11-.09.04-.17.08-.25.11-.3.13-.49.2-.49.2l-.28.1c-.82.29-1.72-.15-2-.97-.17-.5-.08-1.03.21-1.44 0 0 .16-.22.46-.57.08-.09.16-.19.26-.29.1-.1.22-.2.34-.31.12-.11.26-.23.4-.35.14-.12.31-.22.47-.34.17-.12.34-.24.53-.35.19-.1.4-.21.6-.32.21-.12.43-.21.66-.3.23-.09.46-.18.71-.27.49-.14 1-.29 1.54-.36.53-.1 1.08-.11 1.63-.14.55.03 1.09.03 1.63.14.53.06 1.05.22 1.54.36.24.08.48.17.71.27.23.09.45.18.66.3.21.11.41.22.6.32.19.11.36.24.53.35.17.12.32.22.48.35.15.13.3.26.43.38s.26.23.37.34c.09.1.15.18.22.26.25.31.38.51.38.51.5.74.31 1.74-.43 2.25-.49.28-1.07.32-1.56.12z" clip-path="url(#b)" fill="#662f1c"/><ellipse cx="80.44" cy="58.81" rx="4.93" ry="5.1" clip-path="url(#b)" fill="#1a1a1a"/><path d="M67.86 68.06c-.11-.04-.21-.07-.32-.08h-7.07c-.11.01-.22.04-.32.08-.64.26-.99.92-.69 1.63.3.71 1.71 2.69 4.55 2.69s4.25-1.99 4.55-2.69c.29-.71-.06-1.37-.7-1.63z" clip-path="url(#b)" fill="#4b4b4b"/><path d="M72.42 76.14c-3.19 1.89-13.63 1.89-16.81 0-1.83-1.09-3.7.58-2.94 2.24.75 1.63 6.45 5.42 11.37 5.42s10.55-3.79 11.3-5.42c.75-1.66-1.09-3.33-2.92-2.24z" clip-path="url(#b)" fill="#1a1a1a"/><g clip-path="url(#b)"><defs><path id="e" d="M73.08 96.34v-6.27H54.92v6.25C32.59 97.9 12 105.39 12 121.06V132h104v-10.94c0-14.8-20.49-23-42.92-24.72z"/></defs><clipPath id="f"><use xlink:href="#e" overflow="visible"/></clipPath><g clip-path="url(#f)"><linearGradient id="g" gradientUnits="userSpaceOnUse" x1="39.179" x2="39.179" y1="97.546" y2="134.014"><stop offset=".017" stop-color="#e86f96"/></linearGradient><path fill="url(#g)" d="M27.51 133.33l2.44-36 13.43-2.65 7.47 38.65z"/><path d="M42.58 95.85l7.05 36.48H28.58l2.31-34.17 11.69-2.31m1.59-2.35L29 96.5l-2.56 37.83h25.62L44.17 93.5z" fill="#fdd836"/></g><g clip-path="url(#f)"><linearGradient id="h" gradientTransform="matrix(-1 0 0 1 1987.167 0)" gradientUnits="userSpaceOnUse" x1="1898.346" x2="1898.346" y1="97.546" y2="134.014"><stop offset=".017" stop-color="#e86f96"/></linearGradient><path fill="url(#h)" d="M77.15 133.33l7.47-38.65 13.43 2.65 2.44 36z"/><path d="M85.42 95.85l11.69 2.31 2.31 34.17H78.36l7.06-36.48m-1.59-2.35l-7.9 40.83h25.62L99 96.5l-15.17-3z" fill="#fdd836"/></g></g><path d="M95.7 67.15c-1.5 4.3-4.32 13.42-19.2 21.74-1.32.74-3.56 1.46-5.85 2a3.54 3.54 0 0 1-3.74-1.42c-.73-1.04-1.8-3.87-2.92-3.83-1.05.03-2.15 2.84-2.84 3.8l-.06.08c-.83 1.16-2.25 1.73-3.62 1.41-2.34-.55-4.63-1.27-5.98-2.03C36.62 80.57 33.8 71.45 32.3 67.15c-.64-1.83-.84-.77-.84-.77 1.44 9.19 6.9 31.16 32.5 31.53h.08c25.6-.37 31.06-22.34 32.5-31.53 0 0-.2-1.06-.84.77z" clip-path="url(#b)" fill="#1a1a1a"/><path d="M25.51 49.85c2.94 2.29 4.01 2.59 5.73 5.9M102.49 49.85c-2.94 2.29-4.01 2.59-5.73 5.9" clip-path="url(#b)" fill="none" stroke="#005686" stroke-width="2" stroke-miterlimit="10"/></svg>

<?xml version="1.0" encoding="UTF-8" standalone="no"?>
<!DOCTYPE svg PUBLIC "-//W3C//DTD SVG 1.1//EN" "http://www.w3.org/Graphics/SVG/1.1/DTD/svg11.dtd">
<svg width="100%" height="100%" viewBox="0 0 128 128" version="1.1" xmlns="http://www.w3.org/2000/svg" xmlns:xlink="http://www.w3.org/1999/xlink" xml:space="preserve" xmlns:serif="http://www.serif.com/" style="fill-rule:evenodd;clip-rule:evenodd;stroke-miterlimit:10;">
    <clipPath id="_clip1">
        <rect x="4" y="4" width="120" height="120"/>
    </clipPath>
    <g clip-path="url(#_clip1)">
        <path d="M81.5,7.91C84.78,10.24 87.05,13.68 89.8,16.62C92.55,19.56 96.23,22.12 100.24,21.79C102.01,21.64 103.93,20.68 104.32,18.95C105.2,20.01 105.25,21.58 104.72,22.85C104.19,24.12 103.15,25.11 102.03,25.9C97.03,29.44 90,29.36 84.57,26.53C79.14,23.7 79.21,18.22 74.48,14.32C69.86,10.51 65.61,10.33 65.09,8.75C64.47,6.86 67.19,5.7 68.45,5.42C72.89,4.41 77.78,5.26 81.5,7.91Z" style="fill:rgb(26,26,26);fill-rule:nonzero;stroke:rgb(62,62,62);stroke-width:1.43px;"/>
    </g>
    <circle cx="64.6" cy="11.1" r="4.94" style="fill:rgb(255,209,7);"/>
    <g>
        <path d="M39.5,72.07C36.84,71.47 29.97,69.11 25.39,60.21C22.45,54.5 21.73,44.39 21.56,40.29L39.5,51L39.5,72.07Z" style="fill:rgb(29,140,200);fill-rule:nonzero;"/>
        <path d="M88.5,51L106.45,40.29C106.27,44.39 105.55,54.5 102.62,60.21C98.04,69.11 91.17,71.47 88.51,72.07L88.51,51L88.5,51Z" style="fill:rgb(29,140,200);fill-rule:nonzero;"/>
    </g>
    <path d="M25.51,49.85C28.45,52.14 29.52,52.44 31.24,55.75M102.49,49.85C99.55,52.14 98.48,52.44 96.76,55.75" style="fill:none;fill-rule:nonzero;stroke:rgb(25,124,183);stroke-width:2px;"/>
    <g>
        <clipPath id="_clip2">
            <rect x="4" y="4" width="120" height="120"/>
        </clipPath>
        <g clip-path="url(#_clip2)">
            <path d="M13,131L13,121.06C13,114.16 17.22,108.52 25.54,104.3C32.87,100.58 43.06,98.16 54.99,97.32C55.51,97.28 55.92,96.85 55.92,96.32L55.92,91.07L72.08,91.07L72.08,96.34C72.08,96.86 72.48,97.3 73,97.34C92.37,98.82 114.99,105.92 114.99,121.06L114.99,131L13,131Z" style="fill:rgb(29,140,200);fill-rule:nonzero;"/>
        </g>
    </g>
    <path d="M29.25,64.38C31.49,64.38 33.31,66.2 33.31,68.44C33.31,70.68 31.49,72.5 29.25,72.5C27.01,72.5 25.19,70.68 25.19,68.44C25.19,66.2 27.01,64.38 29.25,64.38M29.25,61.88C25.63,61.88 22.69,64.82 22.69,68.44C22.69,72.06 25.63,75 29.25,75C32.87,75 35.81,72.06 35.81,68.44C35.81,64.81 32.87,61.88 29.25,61.88ZM98.75,64.38C100.99,64.38 102.81,66.2 102.81,68.44C102.81,70.68 100.99,72.5 98.75,72.5C96.51,72.5 94.69,70.68 94.69,68.44C94.69,66.2 96.51,64.38 98.75,64.38M98.75,61.88C95.13,61.88 92.19,64.82 92.19,68.44C92.19,72.06 95.13,75 98.75,75C102.37,75 105.31,72.06 105.31,68.44C105.31,64.81 102.37,61.88 98.75,61.88Z" style="fill:rgb(255,209,7);fill-rule:nonzero;"/>
    <g>
        <g transform="matrix(1.03643,0,0,1.03643,-2.38328,-0.276011)">
            <path d="M64.05,9.91C38.65,9.91 32.01,29.6 32.01,57.26C32.01,85.94 50.44,93.36 64.05,93.36C77.46,93.36 96.09,86.16 96.09,57.26C96.1,29.59 89.45,9.91 64.05,9.91Z" style="fill:rgb(66,173,231);fill-rule:nonzero;"/>
        </g>
        <g transform="matrix(1.03643,0,0,1.03643,-2.38328,-3.39048)">
            <path d="M53.5,59.82C53.5,62.68 51.59,64.99 49.22,64.99C46.86,64.99 44.93,62.67 44.93,59.82C44.93,56.96 46.85,54.64 49.22,54.64C51.59,54.64 53.5,56.96 53.5,59.82M74.6,59.82C74.6,62.68 76.51,64.99 78.89,64.99C81.25,64.99 83.17,62.67 83.17,59.82C83.17,56.96 81.25,54.64 78.89,54.64C76.51,54.64 74.6,56.96 74.6,59.82" style="fill:rgb(33,33,33);fill-rule:nonzero;"/>
        </g>
        <g transform="matrix(1.03643,0,0,1.03643,-2.38328,-3.39048)">
            <path d="M73.33,77.29L54.79,77.29C53.73,77.29 53.27,78 53.97,79.08C54.95,80.58 58.61,83.46 64.06,83.46C69.51,83.46 73.17,80.58 74.15,79.08C74.85,78.01 74.39,77.29 73.33,77.29Z" style="fill:rgb(33,33,33);fill-rule:nonzero;"/>
        </g>
        <g transform="matrix(1.03643,0,0,1.03643,-2.38328,-3.39048)">
            <path d="M68.53,69.41C66.95,69.86 65.31,70.07 64.05,70.07C62.79,70.07 61.15,69.85 59.57,69.41C58.9,69.22 58.63,69.86 58.87,70.28C59.37,71.16 61.39,72.94 64.05,72.94C66.71,72.94 68.73,71.16 69.23,70.28C69.47,69.86 69.21,69.22 68.53,69.41Z" style="fill:rgb(19,81,124);fill-rule:nonzero;"/>
        </g>
    </g>
    <g>
        <clipPath id="_clip3">
            <rect x="4" y="4" width="120" height="120"/>
        </clipPath>
        <g clip-path="url(#_clip3)">
            <g>
                <clipPath id="_clip4">
                    <path d="M73.08,96.34L73.08,90.07L54.92,90.07L54.92,96.32C32.59,97.9 12,105.39 12,121.06L12,132L116,132L116,121.06C116,106.26 95.51,98.06 73.08,96.34Z"/>
                </clipPath>
                <g clip-path="url(#_clip4)">
                    <path d="M27.51,133.33L29.95,97.33L43.38,94.68L50.85,133.33L27.51,133.33Z" style="fill:url(#_Linear5);fill-rule:nonzero;"/>
                    <path d="M42.58,95.85L49.63,132.33L28.58,132.33L30.89,98.16L42.58,95.85M44.17,93.5L29,96.5L26.44,134.33L52.06,134.33L44.17,93.5Z" style="fill:rgb(253,216,54);fill-rule:nonzero;"/>
                </g>
            </g>
            <g>
                <clipPath id="_clip6">
                    <path d="M73.08,96.34L73.08,90.07L54.92,90.07L54.92,96.32C32.59,97.9 12,105.39 12,121.06L12,132L116,132L116,121.06C116,106.26 95.51,98.06 73.08,96.34Z"/>
                </clipPath>
                <g clip-path="url(#_clip6)">
                    <path d="M77.15,133.33L84.62,94.68L98.05,97.33L100.49,133.33L77.15,133.33Z" style="fill:url(#_Linear7);fill-rule:nonzero;"/>
                    <path d="M85.42,95.85L97.11,98.16L99.42,132.33L78.36,132.33L85.42,95.85M83.83,93.5L75.93,134.33L101.55,134.33L99,96.5L83.83,93.5Z" style="fill:rgb(253,216,54);fill-rule:nonzero;"/>
                </g>
            </g>
        </g>
    </g>
    <path d="M95.7,67.15C94.2,71.45 91.38,80.57 76.5,88.89C75.18,89.63 72.94,90.35 70.65,90.89C69.233,91.233 67.742,90.667 66.91,89.47C66.18,88.43 65.11,85.6 63.99,85.64C62.94,85.67 61.84,88.48 61.15,89.44L61.09,89.52C60.26,90.68 58.84,91.25 57.47,90.93C55.13,90.38 52.84,89.66 51.49,88.9C36.62,80.57 33.8,71.45 32.3,67.15C31.66,65.32 31.46,66.38 31.46,66.38C32.9,75.57 38.36,97.54 63.96,97.91L64.04,97.91C89.64,97.54 95.1,75.57 96.54,66.38C96.54,66.38 96.34,65.32 95.7,67.15Z" style="fill:rgb(26,26,26);fill-rule:nonzero;"/>
    <defs>
        <linearGradient id="_Linear5" x1="0" y1="0" x2="1" y2="0" gradientUnits="userSpaceOnUse" gradientTransform="matrix(2.23302e-15,36.468,-36.468,2.23302e-15,39.179,97.546)"><stop offset="0" style="stop-color:rgb(232,111,150);stop-opacity:1"/><stop offset="1" style="stop-color:rgb(232,111,150);stop-opacity:1"/></linearGradient>
        <linearGradient id="_Linear7" x1="0" y1="0" x2="1" y2="0" gradientUnits="userSpaceOnUse" gradientTransform="matrix(2.23302e-15,36.468,-36.468,2.23302e-15,88.821,97.546)"><stop offset="0" style="stop-color:rgb(232,111,150);stop-opacity:1"/><stop offset="1" style="stop-color:rgb(232,111,150);stop-opacity:1"/></linearGradient>
    </defs>
</svg>
